elementary-icon-theme/elementary/panel/22/gtk-dialog-authentication-panel.svg

<?xml version="1.0" encoding="UTF-8" standalone="no"?>
<!-- Created with Inkscape (http://www.inkscape.org/) -->

<svg
   xmlns:dc="http://purl.org/dc/elements/1.1/"
   xmlns:cc="http://creativecommons.org/ns#"
   xmlns:rdf="http://www.w3.org/1999/02/22-rdf-syntax-ns#"
   xmlns:svg="http://www.w3.org/2000/svg"
   xmlns="http://www.w3.org/2000/svg"
   xmlns:xlink="http://www.w3.org/1999/xlink"
   xmlns:sodipodi="http://sodipodi.sourceforge.net/DTD/sodipodi-0.dtd"
   xmlns:inkscape="http://www.inkscape.org/namespaces/inkscape"
   version="1.0"
   width="14"
   height="22"
   id="svg3195"
   inkscape:version="0.48.0 r9654"
   sodipodi:docname="gtk-dialog-authentication-panel.svg">
  <metadata
     id="metadata13">
    <rdf:RDF>
      <cc:Work
         rdf:about="">
        <dc:format>image/svg+xml</dc:format>
        <dc:type
           rdf:resource="http://purl.org/dc/dcmitype/StillImage" />
      </cc:Work>
    </rdf:RDF>
  </metadata>
  <sodipodi:namedview
     pagecolor="#ffffff"
     bordercolor="#666666"
     borderopacity="1"
     objecttolerance="10"
     gridtolerance="10"
     guidetolerance="10"
     inkscape:pageopacity="0"
     inkscape:pageshadow="2"
     inkscape:window-width="1280"
     inkscape:window-height="753"
     id="namedview11"
     showgrid="false"
     inkscape:zoom="13.227273"
     inkscape:cx="-2.1546392"
     inkscape:cy="11.793814"
     inkscape:window-x="0"
     inkscape:window-y="24"
     inkscape:window-maximized="1"
     inkscape:current-layer="svg3195" />
  <defs
     id="defs3197">
    <linearGradient
       id="linearGradient3587-6-5">
      <stop
         id="stop3589-9-2"
         style="stop-color:#000000;stop-opacity:1"
         offset="0" />
      <stop
         id="stop3591-7-4"
         style="stop-color:#363636;stop-opacity:1"
         offset="1" />
    </linearGradient>
    <linearGradient
       x1="32.953598"
       y1="24.650944"
       x2="32.953598"
       y2="42.689835"
       id="linearGradient2419"
       xlink:href="#linearGradient3587-6-5"
       gradientUnits="userSpaceOnUse"
       gradientTransform="translate(-23.128427,-22.655781)" />
  </defs>
  <g
     id="layer1"
     transform="translate(-4,0)">
    <path
       d="m 11.025626,2.9998022 c -2.323096,-0.019671 -4.5086938,1.7349856 -4.9374998,3.9375 -0.428806,2.2025147 0.7339528,4.2677298 2.90625,5.0624998 l 0,6 c 0,2 1.1300768,3.016519 1.9999998,3 0.869923,-0.01652 2,-1 2,-3 l 2,-1 -2,-1 -1,0 3,-2 -2,-1 0,-1 c 2.186422,-0.757861 3.326169,-2.7593131 2.9375,-4.9687498 -0.388669,-2.2094366 -2.583154,-4.011579 -4.90625,-4.03125 z m 0,2.96875 c 0.584746,0 1.03125,0.4465016 1.03125,1.03125 0,0.5847484 -0.446504,1.03125 -1.03125,1.03125 -0.584746,0 -1.0312498,-0.4465016 -1.0312498,-1.03125 0,-0.5847484 0.4465038,-1.03125 1.0312498,-1.03125 z m 0,1 c 0.02182,0 -0.03125,0.053071 -0.03125,0.03125 0,-0.021821 0.05307,0.03125 0.03125,0.03125 -0.02182,0 0.03125,-0.053071 0.03125,-0.03125 0,0.021821 -0.05307,-0.03125 -0.03125,-0.03125 l 0,0 z"
       id="path2421"
       style="opacity:0.6;fill:#ffffff;fill-opacity:1;fill-rule:nonzero;stroke:none;stroke-width:1;marker:none;visibility:visible;display:inline;overflow:visible;enable-background:accumulate"
       inkscape:connector-curvature="0" />
    <path
       d="m 11.025626,2.0338543 c -2.323096,-0.019671 -4.5086938,1.7349856 -4.9374998,3.9375 -0.428806,2.2025143 0.7339528,4.2677297 2.90625,5.0624997 l 0,6 c 0,2 1.1300768,3.016519 1.9999998,3 0.869923,-0.01652 2,-1 2,-3 l 2,-1 -2,-1 -1,0 3,-2 -2,-1 0,-1 c 2.186422,-0.757861 3.326169,-2.7593132 2.9375,-4.9687497 -0.388669,-2.2094366 -2.583154,-4.011579 -4.90625,-4.03125 z m 0,2.96875 c 0.584746,0 1.03125,0.4465016 1.03125,1.03125 0,0.5847484 -0.446504,1.03125 -1.03125,1.03125 -0.584746,0 -1.0312498,-0.4465016 -1.0312498,-1.03125 0,-0.5847484 0.4465038,-1.03125 1.0312498,-1.03125 z m 0,1 c 0.02182,0 -0.03125,0.053071 -0.03125,0.03125 0,-0.021821 0.05307,0.03125 0.03125,0.03125 -0.02182,0 0.03125,-0.053071 0.03125,-0.03125 0,0.021821 -0.05307,-0.03125 -0.03125,-0.03125 l 0,0 z"
       id="path7793"
       style="opacity:0.7;fill:url(#linearGradient2419);fill-opacity:1;fill-rule:nonzero;stroke:none;stroke-width:1;marker:none;visibility:visible;display:inline;overflow:visible;enable-background:accumulate"
       inkscape:connector-curvature="0" />
  </g>
</svg>

<?xml version="1.0" encoding="UTF-8" standalone="no"?>
<!-- Created with Inkscape (http://www.inkscape.org/) -->
<svg
   xmlns:svg="http://www.w3.org/2000/svg"
   xmlns="http://www.w3.org/2000/svg"
   xmlns:xlink="http://www.w3.org/1999/xlink"
   version="1.0"
   width="22"
   height="22"
   id="svg3195">
  <defs
     id="defs3197">
    <linearGradient
       id="linearGradient3587-6-5">
      <stop
         id="stop3589-9-2"
         style="stop-color:#000000;stop-opacity:1"
         offset="0" />
      <stop
         id="stop3591-7-4"
         style="stop-color:#363636;stop-opacity:1"
         offset="1" />
    </linearGradient>
    <linearGradient
       x1="32.953598"
       y1="24.650944"
       x2="32.953598"
       y2="42.689835"
       id="linearGradient2419"
       xlink:href="#linearGradient3587-6-5"
       gradientUnits="userSpaceOnUse"
       gradientTransform="translate(-23.128427,-22.655781)" />
  </defs>
  <g
     id="layer1">
    <path
       d="M 11.025626,2.9998022 C 8.70253,2.9801308 6.5169322,4.7347878 6.0881262,6.9373022 C 5.6593202,9.1398169 6.822079,11.205032 8.9943762,11.999802 L 8.9943762,17.999802 C 8.9943762,19.999802 10.124453,21.016321 10.994376,20.999802 C 11.864299,20.983282 12.994376,19.999802 12.994376,17.999802 L 14.994376,16.999802 L 12.994376,15.999802 L 11.994376,15.999802 L 14.994376,13.999802 L 12.994376,12.999802 L 12.994376,11.999802 C 15.180798,11.241941 16.320545,9.2404889 15.931876,7.0310522 C 15.543207,4.8216156 13.348722,3.0194732 11.025626,2.9998022 z M 11.025626,5.9685522 C 11.610372,5.9685522 12.056876,6.4150538 12.056876,6.9998022 C 12.056876,7.5845506 11.610372,8.0310522 11.025626,8.0310522 C 10.44088,8.0310522 9.9943762,7.5845506 9.9943762,6.9998022 C 9.9943762,6.4150538 10.44088,5.9685522 11.025626,5.9685522 z M 11.025626,6.9685522 C 11.047446,6.9685522 10.994376,7.0216229 10.994376,6.9998022 C 10.994376,6.9779812 11.047446,7.0310522 11.025626,7.0310522 C 11.003806,7.0310522 11.056876,6.9779812 11.056876,6.9998022 C 11.056876,7.0216232 11.003806,6.9685522 11.025626,6.9685522 L 11.025626,6.9685522 z"
       id="path2421"
       style="opacity:0.6;fill:#ffffff;fill-opacity:1;fill-rule:nonzero;stroke:none;stroke-width:1;stroke-linecap:square;stroke-linejoin:miter;marker:none;marker-start:none;marker-mid:none;marker-end:none;stroke-miterlimit:4;stroke-dasharray:none;stroke-dashoffset:0;stroke-opacity:1;visibility:visible;display:inline;overflow:visible;enable-background:accumulate" />
    <path
       d="M 11.025626,2.0338543 C 8.70253,2.0141829 6.5169322,3.7688399 6.0881262,5.9713543 C 5.6593202,8.1738686 6.822079,10.239084 8.9943762,11.033854 L 8.9943762,17.033854 C 8.9943762,19.033854 10.124453,20.050373 10.994376,20.033854 C 11.864299,20.017334 12.994376,19.033854 12.994376,17.033854 L 14.994376,16.033854 L 12.994376,15.033854 L 11.994376,15.033854 L 14.994376,13.033854 L 12.994376,12.033854 L 12.994376,11.033854 C 15.180798,10.275993 16.320545,8.2745408 15.931876,6.0651043 C 15.543207,3.8556677 13.348722,2.0535253 11.025626,2.0338543 z M 11.025626,5.0026043 C 11.610372,5.0026043 12.056876,5.4491059 12.056876,6.0338543 C 12.056876,6.6186027 11.610372,7.0651043 11.025626,7.0651043 C 10.44088,7.0651043 9.9943762,6.6186027 9.9943762,6.0338543 C 9.9943762,5.4491059 10.44088,5.0026043 11.025626,5.0026043 z M 11.025626,6.0026043 C 11.047446,6.0026043 10.994376,6.055675 10.994376,6.0338543 C 10.994376,6.0120333 11.047446,6.0651043 11.025626,6.0651043 C 11.003806,6.0651043 11.056876,6.0120333 11.056876,6.0338543 C 11.056876,6.0556753 11.003806,6.0026043 11.025626,6.0026043 L 11.025626,6.0026043 z"
       id="path7793"
       style="opacity:0.7;fill:url(#linearGradient2419);fill-opacity:1;fill-rule:nonzero;stroke:none;stroke-width:1;stroke-linecap:square;stroke-linejoin:miter;marker:none;marker-start:none;marker-mid:none;marker-end:none;stroke-miterlimit:4;stroke-dasharray:none;stroke-dashoffset:0;stroke-opacity:1;visibility:visible;display:inline;overflow:visible;enable-background:accumulate" />
  </g>
</svg>
